icons/navigation-outline.svg

<svg xmlns="http://www.w3.org/2000/svg" width="24" height="24" viewBox="0 0 24 24">
  <path d="M21.7071012,2.29291792 C22.0060012,2.59174792 22.0847012,3.04617792 21.9038012,3.42810792 L12.9038012,22.4280979 C12.7229012,22.8097979 12.3218012,23.0367979 11.9015012,22.9951979 C11.4812012,22.9534979 11.1323012,22.6522979 11.0299012,22.2425979 L9.17540124,14.8245979 L1.75749124,12.9701979 C1.34773124,12.8676979 1.04651124,12.5188979 1.00489124,12.0985979 C0.963273242,11.6781979 1.19022124,11.2770979 1.57194124,11.0962979 L20.5719012,2.09628792 C20.9539012,1.91537792 21.4083012,1.99408792 21.7071012,2.29291792 Z M4.95337124,11.7075979 L10.2426012,13.0298979 C10.6008012,13.1194979 10.8806012,13.3991979 10.9702012,13.7574979 L12.2925012,19.0466979 L18.8976012,5.10240792 L4.95337124,11.7075979 Z"/>
</svg>

<svg xmlns="http://www.w3.org/2000/svg" viewBox="0 0 24 24">
  <path d="M21.7 2.3c.3.3.38.75.2 1.13l-9 19a1 1 0 0 1-1.87-.19l-1.85-7.42-7.42-1.85a1 1 0 0 1-.19-1.87l19-9a1 1 0 0 1 1.14.2zM4.96 11.7l5.3 1.33a1 1 0 0 1 .72.73l1.32 5.29L18.9 5.1 4.96 11.7z"/>
</svg>
